public/images/lines-2.svg

<svg fill="none" height="1036" viewBox="0 0 1036 1036" width="1036" xmlns="http://www.w3.org/2000/svg"><g stroke-width="4"><path d="m672.696 250.05.008.004 99.737 57.311c34.214 19.66 55.276 56.14 55.195 95.601l-.236 115.03v.008l.236 115.03c.081 39.461-20.981 75.941-55.195 95.601l-99.737 57.311-.008.004-99.501 57.72c-34.133 19.8-76.257 19.8-110.39 0l-99.501-57.72-.008-.004-99.737-57.311c-34.214-19.66-55.276-56.14-55.195-95.601l.236-115.03v-.008l-.236-115.03c-.081-39.461 20.981-75.941 55.195-95.601l99.737-57.311.008-.004 99.501-57.72c34.133-19.8 76.257-19.8 110.39 0z" opacity=".5" stroke="#222325"/><path d="m741.031 131.69.008.004 168.234 96.671c34.214 19.66 55.276 56.14 55.195 95.601l-.398 194.03v.008l.398 194.03c.081 39.461-20.981 75.941-55.195 95.601l-168.234 96.671-.008.004-167.836 97.36c-34.133 19.8-76.257 19.8-110.39 0l-167.836-97.36-.008-.004-168.234-96.671c-34.2138-19.66-55.2759-56.14-55.1949-95.601l.3979-194.03v-.008l-.3979-194.03c-.081-39.461 20.9811-75.941 55.1949-95.601l168.234-96.671.008-.004 167.836-97.3598c34.133-19.8002 76.257-19.8002 110.39 0z" opacity=".15" stroke="#222325"/><path d="m966.07 518 .398 194.03c.082 40.178-21.363 77.322-56.199 97.339l-168.234 96.671" opacity=".15" stroke="#007bff"/></g></svg>

<svg width="1036" height="1036" viewBox="0 0 1036 1036" fill="none" xmlns="http://www.w3.org/2000/svg">
<path opacity="0.5" d="M672.696 250.05L672.704 250.054L772.441 307.365C806.655 327.025 827.717 363.505 827.636 402.966L827.4 517.996V518.004L827.636 633.034C827.717 672.495 806.655 708.975 772.441 728.635L672.704 785.946L672.696 785.95L573.195 843.67C539.062 863.47 496.938 863.47 462.805 843.67L363.304 785.95L363.296 785.946L263.559 728.635C229.345 708.975 208.283 672.495 208.364 633.034L208.6 518.004L208.6 517.996L208.364 402.966C208.283 363.505 229.345 327.025 263.559 307.365L363.296 250.054L363.304 250.05L462.805 192.33C496.938 172.53 539.062 172.53 573.195 192.33L672.696 250.05Z" stroke="#222325" stroke-width="4"/>
<path opacity="0.15" d="M741.031 131.69L741.039 131.694L909.273 228.365C943.487 248.025 964.549 284.505 964.468 323.966L964.07 517.996V518.004L964.468 712.034C964.549 751.495 943.487 787.975 909.273 807.635L741.039 904.306L741.031 904.31L573.195 1001.67C539.062 1021.47 496.938 1021.47 462.805 1001.67L294.969 904.31L294.961 904.306L126.727 807.635C92.5132 787.975 71.4511 751.495 71.5321 712.034L71.93 518.004L71.93 517.996L71.5321 323.966C71.4511 284.505 92.5132 248.025 126.727 228.365L294.961 131.694L294.969 131.69L462.805 34.3302C496.938 14.53 539.062 14.53 573.195 34.3302L741.031 131.69Z" stroke="#222325" stroke-width="4"/>
<path opacity="0.15" d="M966.07 518L966.468 712.03C966.55 752.208 945.105 789.352 910.269 809.369L742.035 906.04" stroke="#007BFF" stroke-width="4"/>
</svg>
